X: 11
T: What care I for whom she be
%%VWML:Skillerns1780-2277i-p6-0
F:http://www.vwml.org/record/Skillerns1780/2277i/p6
%R: jig
B: "Twenty Four Country Dances for the Year 1780", Thomas Skillern, ed. p.6 #1
F: http://www.vwml.org/browse/browse-collections-dance-tune-books/browse-skillerns1780#
Z: 2014 John Chambers <jc:trillian.mit.edu>
M: 6/8
L: 1/8
K: F
|:\
f2F F>GF | a2F F>GF | GAB cBA | GAF EDC |\
a2F F>GF | a2F F>GF | c>cd cAF | G3 F3 :|
|:\
GA=B c2c | def edc | g2e f2d | edc =BAG |\
g2e f2d | edc =BAG | Afe dc=B | c2C C3 |
f2F F>GF | a2F F>GF | GAB cBA | GAF EDC |\
a2F F>GF | a2F F>GF | c>dc cAF | G3 F3 :|
W:
W:  Cast down one Cu: Hands four round with the 3d .|. Cast up
W:again & hands four round at top :|. Cross over two Cu: lead
W:up to the top Cast off Set with the top Cu. and Right and
W:Left .|: Hands Six round lead thro' the top Cast off thro'
W:the bottom Cast up and turn your Partner :|:
%%endtext
T: The Spring
%R: reel
B: "Twenty Four Country Dances for the Year 1780", Thomas Skillern, ed. p.6 #2
F: http://www.vwml.org/browse/browse-collections-dance-tune-books/browse-skillerns1780#
Z: 2014 John Chambers <jc:trillian.mit.edu>
M: 2/4
L: 1/16
K: G
|:\
g2dc B2AG | ABcA GFED |\
g2dc B2AG | D2F2G2G,2 :|
|:\
A2FD c2BA | d2cB A2D2 |\
g2dc B2AG | D2F2G2G,2 :|
W:
W:  Cast down one Cu. and swing
W:Partner .|. the same up again :|.
W:Cross over one Cu .|: Right &
W:Left at top :|:

